X:1
T:[ID 4-46v]
T:[ID 4-46v]
T:Bezeichnung standardisiert: Freut euch des Lebens; [ausgerissen, wohl: Aria freut] euch des Lebens
T:Urheber unbekannt Erstbeleg: 1767 (Datum in der schriftlichen Quelle) Datum in der hier transkribierten schriftlichen Quelle: 1796
C:Urheber unbekannt
C:Erstbeleg: 1767 (Datum in der schriftlichen Quelle)
C:Datum in der hier transkribierten schriftlichen Quelle: 1796
L:1/8
M:6/8
K:G
V:1 treble 
V:1
S Bc B3 cBc | d3 g3 | B3 AGA | BdB A3 | B3 cBc | d3 g3 | B3 AGA | G3 z Bc | d2 d ABc | d2 B G2 d | %10
 d2 d ABc | d2 B G2 d | e2 c g2 e | d2 B g2 d | ded dcB |S B3 A3!D.S.! | %16

